X:137
T: Der kleine Taenzer
N: A0503
O: Europa, Mitteleuropa, Deutschland
N: M. Franck, Fasc. Quodl. 1611 No. 2.
R: Romanze, Ballade, Lied, Kinderlied
M: 3/2
L: 1/4
K: D
A2 | d4A2 | d4A2 | =c4B2 | A4
A2 | A4=c2 | B2B2=c2 | d6 | =c4
c2 | =c3BA2 | A4G2 | A6 | A4
d2 | cBcdc2 | d4

@@@ Tune index: 450
